!!!COM: Gustav Mahler
!!!CNT: Deutsch
!!!TXO: Deutsch
!!!OTL: "Scheiden und Meiden"
!!!LYR: Des Knaben Wunderhorn
!!!OPR: Des Knaben Wunderhorn, Part 1
!!!ENC: O'Neal Douglas
!!!YOR: CD Sheet Music: Late Romantic German Lieder
!!!YOR: CD Sheet Music, LLC, 2001
!!!ODT: 1890/
!!NB: Vocal melody and text encoded.
**kern	**text
*staff1	*staff1
=1-	=1-
*clefG2	*
*k[b-]	*
*M6/8	*
*MM180	*
2.r	.
=2	=2
2.r	.
=3	=3
2.r	.
=4	=4
4r	.
8r	.
4r	.
{8c	{Es
=5	=5
8.f	rit-
16a	-ten
8cc	drei
8.cc	Rei-
16f	-ter
8c	zum
=6	=6
8.f	Tho-
16a	-re
8cc	hin-
4cc}	-aus!}
{8cc	{A-
=7	=7
4.ff	-de!
4.cc	A-
=8	=8
4.a	-de!
(4dd	Fein's
8cc)	|
=9	=9
8.b-	Lieb-
16a	-chen,
8g	das
8g	schau-
8a	-te
8d	zum
=10	=10
8.g	Fen-
16b-	-ster
8dd	hin-
[4.dd	-aus!
=11	=11
4.dd]}	|}
4r	.
{8cc	{A-
=12	=12
4.ff	-de!
4.cc	A-
=13	=13
4.a	-de!
4.g	A-
=14	=14
[4.cc	-de!
8cc]}	|}
8r	.
8r	.
=15	=15
2.r	.
=16	=16
2.r	.
=17	=17
2.r	.
=18	=18
4r	.
8r	.
4r	.
{8c	{Und
=19	=19
*M2/4	*
4a-	wenn
8a-	es
8a-	denn
=20	=20
(4a-	soll
8g)	|
8f	ge-
=21	=21
4g	-schie-
4f	-den
=22	=22
4c}	sein,}
8r	.
{8c	{so
=23	=23
[4cc	reich'
12cc]	|
12bn	mir
12cc	dein
=24	=24
[4ff	gol-
12ff]	|
12ee-	-de-
12dd-	-nes
=25	=25
4.cc	Rin-
8bn	-ge-
=26	=26
4b-}	lein!}
8r	.
{8dd-	{A
=27	=27
4cc	-de!
8r	.
8dd-	A-
=28	=28
4.cc}	-de!}
{8b-	{Ja,
=29	=29
(8a	Schei-
8b-)	|
8cc	-den
8dd	und
=30	=30
4cc	Mei-
8b-	-den
(16a	thut
16g)	|
=31	=31
(8f	weh,
8f#)	|
(8g	thut
8g#)	|
=32	=32
4a}	weh!}
8r	.
{8a	{Ja,
=33	=33
(8a	Schei-
[8b-)	|
12b-]	|
12cc	-den
12dd	und
=34	=34
(8dd	Mei-
8ee)	|
8dd	-den
8b-	thut
=35	=35
4g	weh,
4cc	thut
=36	=36
4a-}	weh!}
8r	.
{8c	{A-
=37	=37
4cc	-de!
8r	.
8c	A-
=38	=38
4cc	-de!
8r	.
8c	A-
=39	=39
[2cc	-de!
=40	=40
2cc_	|
=41	=41
2cc_	|
=42	=42
2cc]}	|}
=43	=43
2r	.
=44	=44
2r	.
=45	=45
4r	.
8r	.
{8c	{Es
=46	=46
4a-	schei-
8a-	-det
8a-	das
=47	=47
(4a-	Kind
8g)	|
8f	schon
=48	=48
4g	in
4f	der
=49	=49
4c}	Wieg'!}
8r	.
{8a-	{A-
=50	=50
4g	-de!
8r	.
8a-	A-
=51	=51
4g}	-de!}
8r	.
{8c	{Wann
=52	=52
[4cc	werd'
12cc]	|
12bn	ich
12cc	mein
=53	=53
[4ff	Scha2-
12ff]	|
12ee-	-tzel
12dd-	wohl
=54	=54
4.cc	krie-
8bn	|
=55	=55
4b-}	-gen!?}
8r	.
{8cc	{A-
=56	=56
4b-	-de!
8r	.
8cc	A-
=57	=57
4b-}	-de!}
8r	.
{8d-	{Und
=58	=58
*M6/8	*
8.c	ist
16e	es
8g	nicht
8.g	mor-
16e	-gen;
8c	ach,
=59	=59
8c	wa2r'-
8e	-es
8g	doch
[4.b-	heut!
=60	=60
4.b-]}	|}
4r	.
{8g	{Es
=61	=61
8.f	mach-
16a	-te
8cc	uns
8cc	Bei-
8a	-den
8f	wohl
=62	=62
4ee-	gro-
8dd	-sse
[4.cc	Freud'!
=63	=63
4.cc]}	|}
4r	.
{8f	{A-
=64	=64
[4.ff	-de!
8ff]	|
8r	.
8f	A-
=65	=65
[4.ff	-de!
8ff]	|
8r	.
8f	A-
=66	=66
4ff	-de!
8f	A-
4ff	-de!
8f	A-
=67	=67
4ff	-de!
8f	A-
4ff}	-de!}
{8f	{Ja,
=68	=68
*M2/4	*
(8a	Schei-
8b-)	|
8cc	-den
8dd	und
=69	=69
4cc	Mei-
8b-	-den
(16a	thut
16g)	|
=70	=70
(8f	weh,
8f#)	|
(8g	thut
8g#)	|
=71	=71
4.a}	weh!}
{8a	{Ja,
=72	=72
(8a	Schei-
[8b-)	|
12b-]	|
12cc	-den
12dd	und
=73	=73
(8dd	Mei-
8ee)	|
(16gg	-den
16ff)	|
(16ee	thut
16dd)	|
=74	=74
4.cc	weh,
(16dd	thut
16cc)	|
=75	=75
(8cc	weh!
4ff	|
8gg	|
=76	=76
8ff	|
8ee)	|
(8dd	A-
8cc)	|
=77	=77
[2ff	-de!
=78	=78
2ff_	|
=79	=79
4ff]}	|}
4r	.
=80	=80
2r	.
=81	=81
2r	.
==	==
*-	*-
